X:3979
L:1/8
M:2/4
K:G
"^A""G" DG G/F/G |"D7" Fe !>!e2 | FA A/^G/A |"G" Gd !>!d2 | DG G/F/G |"Am" EA A/^G/A |"D7" Fd c>F | 
"G" GB G z ::[K:C]"^B""C" GE cG |"G7" B/B/B BG | B/B/B BF |"C" A/A/A EE/F/ | GE cG |"F" AF dA | 
"G7" B/A/G f/e/d |"C" ce c"_>Teil A" z ::"^C""C" G/G/G/G/ GG | ed cB |"F" A/A/A/A/ AA | f3 z | 
"G7" B/B/B/B/ BB | gf ed |1"C" c/c/c/c/ BA | G3 z :|2"C" .c2 .e2 | c2 z2 |:"^D""G7" G3 F/D/ | 
 G3 F/D/ |"C" A3 G/E/ | A3 G/E/ |"G7" cB BA |"C" AG G2 |1"D7" cB BA |"G7" AG G2 :|2"G7" ff ed | 
"C" c2 z2 |]

